X: 0853
M: 6/8
L: 1/8
K: G
dBG BGE | EAA A2G/A/ | B>AG dBG | Bdd Td2c/B/ |\
cec dc/B/A/G/ | EAA A2G/A/ | B>AG EGD | EGG G2 :|
g/a/ |\
b>ag egd | eaa a2g/a/ | b>ag egd | egg Tg2B |\
cec dBG | EAA A2G/A/ | B>AG EGD | EGG G2 g/a/ |
b>ag egd | eaa a2g/a/ | b>ag egd | egg Tg2B |\
egg Tg2B | c/e/d/c/B/A/ B/d/c/B/A/G/ | EAA A2B/c/ | d>c B/A/ GBD | EGG G2 |]

